X:766
T:Landlady of Inver Inn, The
C:Niel Gow
Z:Nigel Gatherer
M:4/4
Q:200
L:1/16
K:G
dc | B2G2G2G2 | F2A2 A2dc | B2G2G2G2  | B2d2-d2
gd | B2G2G2G2 | F2A2 A2dc | cBAG GFED | E2G2-G2 :|
d/e/f | g3a b2ag | f2a2d2f2 | g3a b2ag | f2a2-a3b |
       g3a b2ag | f2a2d2gd | cBAG GFED | E2G2-G2 :|
